Newaita/actions/22/window-copy.svg

<svg height="22" viewBox="0 0 22 22" width="22" xmlns="http://www.w3.org/2000/svg"><g fill="#424242"><path d="m8.1875 1.992188c-1.511719 0-2.730469 1.214843-2.730469 2.726562v9.097656c0 1.511719 1.21875 2.726563 2.730469 2.726563h9.09375c1.511719 0 2.730469-1.214844 2.730469-2.726563v-9.097656c0-1.511719-1.21875-2.726562-2.730469-2.726562zm0 1.816406h9.09375c.503906 0 .910156.40625.910156.910156v9.097656c0 .503906-.40625.910156-.910156.910156h-9.09375c-.503906 0-.910156-.40625-.910156-.910156v-9.097656c0-.503906.40625-.910156.910156-.910156zm0 0"/><path d="m6.367188 6.539062h12.734374v.910157h-12.734374zm0 0"/><path d="m4.546875 5.628906c-1.511719 0-2.726563 1.21875-2.726563 2.730469v9.09375c0 1.511719 1.214844 2.730469 2.726563 2.730469h9.097656c1.511719 0 2.726563-1.21875 2.726563-2.730469h-1.816406c0 .503906-.40625.910156-.910157.910156h-9.097656c-.503906 0-.910156-.40625-.910156-.910156v-9.09375c0-.503906.40625-.910156.910156-.910156zm0 0"/><path d="m2.730469 10.175781h1.816406v.910157h-1.816406zm0 0"/></g></svg>

<svg xmlns="http://www.w3.org/2000/svg" xmlns:xlink="http://www.w3.org/1999/xlink" width="22px" height="22px" viewBox="0 0 22 22" version="1.1">
<g id="surface1">
     <defs>
  <style id="current-color-scheme" type="text/css">
   .ColorScheme-Text { color:#424242; } .ColorScheme-Highlight { color:#eeeeee; }
  </style>
 </defs>
<path style="fill:currentColor" class="ColorScheme-Text" d="M 8.1875 1.992188 C 6.675781 1.992188 5.457031 3.207031 5.457031 4.71875 L 5.457031 13.816406 C 5.457031 15.328125 6.675781 16.542969 8.1875 16.542969 L 17.28125 16.542969 C 18.792969 16.542969 20.011719 15.328125 20.011719 13.816406 L 20.011719 4.71875 C 20.011719 3.207031 18.792969 1.992188 17.28125 1.992188 Z M 8.1875 3.808594 L 17.28125 3.808594 C 17.785156 3.808594 18.191406 4.214844 18.191406 4.71875 L 18.191406 13.816406 C 18.191406 14.320312 17.785156 14.726562 17.28125 14.726562 L 8.1875 14.726562 C 7.683594 14.726562 7.277344 14.320312 7.277344 13.816406 L 7.277344 4.71875 C 7.277344 4.214844 7.683594 3.808594 8.1875 3.808594 Z M 8.1875 3.808594 "/>
     <defs>
  <style id="current-color-scheme" type="text/css">
   .ColorScheme-Text { color:#424242; } .ColorScheme-Highlight { color:#eeeeee; }
  </style>
 </defs>
<path style="fill:currentColor" class="ColorScheme-Text" d="M 6.367188 6.539062 L 19.101562 6.539062 L 19.101562 7.449219 L 6.367188 7.449219 Z M 6.367188 6.539062 "/>
     <defs>
  <style id="current-color-scheme" type="text/css">
   .ColorScheme-Text { color:#424242; } .ColorScheme-Highlight { color:#eeeeee; }
  </style>
 </defs>
<path style="fill:currentColor" class="ColorScheme-Text" d="M 4.546875 5.628906 C 3.035156 5.628906 1.820312 6.847656 1.820312 8.359375 L 1.820312 17.453125 C 1.820312 18.964844 3.035156 20.183594 4.546875 20.183594 L 13.644531 20.183594 C 15.15625 20.183594 16.371094 18.964844 16.371094 17.453125 L 14.554688 17.453125 C 14.554688 17.957031 14.148438 18.363281 13.644531 18.363281 L 4.546875 18.363281 C 4.042969 18.363281 3.636719 17.957031 3.636719 17.453125 L 3.636719 8.359375 C 3.636719 7.855469 4.042969 7.449219 4.546875 7.449219 Z M 4.546875 5.628906 "/>
     <defs>
  <style id="current-color-scheme" type="text/css">
   .ColorScheme-Text { color:#424242; } .ColorScheme-Highlight { color:#eeeeee; }
  </style>
 </defs>
<path style="fill:currentColor" class="ColorScheme-Text" d="M 2.730469 10.175781 L 4.546875 10.175781 L 4.546875 11.085938 L 2.730469 11.085938 Z M 2.730469 10.175781 "/>
</g>
</svg>
